image/icon/Settlement.svg

<!--version="1.0" encoding="UTF-8"--><svg version="1.1" id="Layer_1" xmlns="http://www.w3.org/2000/svg" width="31" height="42" xml:space="preserve"><g id="PathID_99" transform="matrix(1, 0, 0, 1, 15.2, 20.5)"><path style="fill: rgb(0, 0, 0); fill-opacity: 1;" d="m6.85-14.6-2.4 2.5L15.2 5.25l-3.85 5.8-.65-.75.1 3.9-11.1 6.5-10.45-6.4v-3.95l-.6.7-3.85-5.75 10.7-17.45-2.35-2.45 3.9-5.9L0-17.45l2.9-3.05 3.95 5.9M0-15l-2.65-2.75-1.65 2.5 2.3 2.4L-12.8 4.8l1.65 2.5 2.35-2.7.05.1v8.05l8.5 5.15 9-5.25-.15-8.3 2.55 2.95 1.65-2.5L1.9-12.8l2.4-2.45-1.65-2.5L0-15M-1.35 2.5l2.85.2 1.1 8.9h-5.2l1.25-9.1"/><path style="fill: rgb(255, 255, 255); fill-opacity: 1;" d="m2.65-17.75 1.65 2.5-2.4 2.45L12.8 4.8l-1.65 2.5L8.6 4.35l.15 8.3-9 5.25-8.5-5.15V4.7l-.05-.1-2.35 2.7-1.65-2.5L-2-12.85l-2.3-2.4 1.65-2.5L0-15l2.65-2.75M-2.6 11.6h5.2L1.5 2.7l-2.85-.2-1.25 9.1"/></g></svg>

<?xml version="1.0" encoding="UTF-8"?>
<svg version="1.1" id="Layer_1" xmlns="http://www.w3.org/2000/svg" xmlns:xlink="http://www.w3.org/1999/xlink" width="31px" height="42px" xml:space="preserve">
<g id="PathID_99" transform="matrix(1, 0, 0, 1, 15.2, 20.5)">
<path style="fill:#000000;fill-opacity:1" d="M6.85 -14.6L4.45 -12.1L15.2 5.25L11.35 11.05L10.7 10.3L10.8 14.2L-0.3 20.7L-10.75 14.3L-10.75 10.35L-11.35 11.05L-15.2 5.3L-4.5 -12.15L-6.85 -14.6L-2.95 -20.5L0 -17.45L2.9 -20.5L6.85 -14.6M0 -15L-2.65 -17.75L-4.3 -15.25L-2 -12.85L-12.8 4.8L-11.15 7.3L-8.8 4.6L-8.75 4.7L-8.75 12.75L-0.25 17.9L8.75 12.65L8.6 4.35L11.15 7.3L12.8 4.8L1.9 -12.8L4.3 -15.25L2.65 -17.75L0 -15M-1.35 2.5L1.5 2.7L2.6 11.6L-2.6 11.6L-1.35 2.5"/>
<path style="fill:#FFFFFF;fill-opacity:1" d="M2.65 -17.75L4.3 -15.25L1.9 -12.8L12.8 4.8L11.15 7.3L8.6 4.35L8.75 12.65L-0.25 17.9L-8.75 12.75L-8.75 4.7L-8.8 4.6L-11.15 7.3L-12.8 4.8L-2 -12.85L-4.3 -15.25L-2.65 -17.75L0 -15L2.65 -17.75M-2.6 11.6L2.6 11.6L1.5 2.7L-1.35 2.5L-2.6 11.6"/>
</g>
</svg>
